X: 268
T: A Merry Christmas
R: jig
M: 6/8
K: Gmajor
|:G2B AGE|ceg dBG|GAB AGE|F2D DEF|
G2B AGE|ceg dBG|EFG Adc|1 BGF G2F:|2 BGF GBc||
|:ded def|gfe dBG|Bcd efg|gbg afd|
gba gfe|dBg dBG|EFG Adc|1 BGF GBc:|2 BGF G2F||

